X: 15
M: C|
L: 1/8
K: A
V: 1
c/d/ |\
eca2 ecdf | ecBA TB3D | CEAB cdef | ecac TB3 c/d/ |\
eca2 ecdf | ecBA TB3D | CEAB cfed | c2B2 A3 :|
|: c |\
V: 2 clef=bass middle=d
a |\
a2A2 c2d2 | c2d2 e2g2 | a2e2 abc'd' | c'2a2 e'2e2 |
a2e2 A2d2 | c2d2 e2g2 | a2e2 Adcd e2E2 A3 :|
|: a |\
g2e2 a2A2 | g2e2 a2A2 | g2e2 ac'd'b | c'2a2 e'2e2 |
g2e2 c2A2 | e2g2 a2e2 | A2e2 adcd | e2E2 A3 :|

